svgs/sharp-solid/display-medical.svg

<svg xmlns="http://www.w3.org/2000/svg" viewBox="0 0 576 512"><!--! Font Awesome Pro 6.6.0 by @fontawesome - https://fontawesome.com License - https://fontawesome.com/license (Commercial License) Copyright 2024 Fonticons, Inc. --><path d="M0 0L576 0l0 416-240 0 10.7 32 69.3 0 32 0 0 64-32 0-256 0-32 0 0-64 32 0 69.3 0L240 416 0 416 0 0zM64 64l0 288 448 0 0-288L64 64zm192 48l64 0 0 64 64 0 0 64-64 0 0 64-64 0 0-64-64 0 0-64 64 0 0-64z"/></svg>

<svg xmlns="http://www.w3.org/2000/svg" viewBox="0 0 576 512"><!--! Font Awesome Pro 6.4.2 by @fontawesome - https://fontawesome.com License - https://fontawesome.com/license (Commercial License) Copyright 2023 Fonticons, Inc. --><path d="M0 0H576V416H336l10.7 32H416h32v64H416 160 128V448h32 69.3L240 416H0V0zM64 64V352H512V64H64zm192 48h64v64h64v64H320v64H256V240H192V176h64V112z"/></svg>
